X:113 
T:Lovely Anne (reel) 
S:Donnelly < J.McMahon
F:file ID: cre.4/113love_a
B:CRE4.170 (Aine Mhaiseach)
Q:180
L:1/8
M:4/4
R:reel
K:Am
G|EAAB ABAB|cded cBAG|EGGB AGBG|ABAG E2DG|
EAAB ABAB|cded cBAG|cBcd egdg|eaa^g a3 ||
e|ageg aged|cABG EG G2|ageg aged|cABG A2 de|
abag eged|cABG EG G2|ABAB cdeg|aged cABG ||\
"last time "A8|]

%%%

